Numix-GalliumOS/24/mimetypes/application-images.svg

<?xml version="1.0" encoding="UTF-8" standalone="no"?>
<svg
   xmlns:dc="http://purl.org/dc/elements/1.1/"
   xmlns:cc="http://creativecommons.org/ns#"
   xmlns:rdf="http://www.w3.org/1999/02/22-rdf-syntax-ns#"
   xmlns:svg="http://www.w3.org/2000/svg"
   xmlns="http://www.w3.org/2000/svg"
   xmlns:sodipodi="http://sodipodi.sourceforge.net/DTD/sodipodi-0.dtd"
   xmlns:inkscape="http://www.inkscape.org/namespaces/inkscape"
   width="24"
   height="24"
   viewBox="0 0 24 24"
   id="svg2"
   version="1.1"
   inkscape:version="0.48.5 r10040"
   sodipodi:docname="application-images.svg">
  <metadata
     id="metadata16">
    <rdf:RDF>
      <cc:Work
         rdf:about="">
        <dc:format>image/svg+xml</dc:format>
        <dc:type
           rdf:resource="http://purl.org/dc/dcmitype/StillImage" />
      </cc:Work>
    </rdf:RDF>
  </metadata>
  <defs
     id="defs14" />
  <sodipodi:namedview
     pagecolor="#ffffff"
     bordercolor="#666666"
     borderopacity="1"
     objecttolerance="10"
     gridtolerance="10"
     guidetolerance="10"
     inkscape:pageopacity="0"
     inkscape:pageshadow="2"
     inkscape:window-width="1280"
     inkscape:window-height="970"
     id="namedview12"
     showgrid="true"
     inkscape:zoom="21.454545"
     inkscape:cx="19.106907"
     inkscape:cy="8.8504822"
     inkscape:window-x="0"
     inkscape:window-y="0"
     inkscape:window-maximized="1"
     inkscape:current-layer="svg2">
    <inkscape:grid
       type="xygrid"
       id="grid3004"
       empspacing="5"
       visible="true"
       enabled="true"
       snapvisiblegridlinesonly="true" />
  </sodipodi:namedview>
  <path
     style="fill:#38a34e;fill-opacity:1"
     d="M 5,1 C 4.527343,1 4,1.527344 4,2 l 0,20 c 0,0.445312 0.554687,1 1,1 l 14,0 c 0.445313,0 0.992367,-0.554753 1,-1 L 20,6.9999998 14,1 z"
     id="path4-7"
     inkscape:connector-curvature="0"
     sodipodi:nodetypes="ssssssccs" />
  <path
     style="fill:#000000;fill-opacity:0.19599998"
     d="M 15,6.9999998 20,12 20,6.9999998 z"
     id="path6"
     inkscape:connector-curvature="0"
     sodipodi:nodetypes="cccc" />
  <path
     style="fill:#ffffff"
     d="M 8.5,9 C 8.2127931,9.02611 7.9956487,9.17798 8,9.5 l 0,7 c 0.00435,0.335074 0.1953878,0.504352 0.5,0.5 l 7,0 c 0.29591,-0.0044 0.495648,-0.169277 0.5,-0.5 l 0,-7 C 16.0044,9.164925 15.800262,9.004351 15.5,9 z m 0.5,1 6,0 0,4 L 13.344645,12.134899 12,13.23136 10.524801,11.255873 9,13 z"
     id="path10"
     inkscape:connector-curvature="0"
     sodipodi:nodetypes="ccccccccccccccccc" />
  <path
     style="fill:#ffffff;fill-opacity:0.39200003"
     d="m 14,1 6,5.9999998 -5,0 c -0.445312,0 -1,-0.554688 -1,-1 z"
     id="path8"
     inkscape:connector-curvature="0"
     sodipodi:nodetypes="ccssc" />
</svg>

<svg xmlns="http://www.w3.org/2000/svg" viewBox="0 0 24 24">
 <path d="m 5 1 c -0.473 0 -1 0.527 -1 1 l 0 20 c 0 0.445 0.555 1 1 1 l 14 0 c 0.445 0 0.992 -0.555 1 -1 l 0 -15 -6 -6 z" style="fill:#38a34e;fill-opacity:1"/>
 <path d="m 15 7 5 5 0 -5 z" style="fill:#000;fill-opacity:0.196"/>
 <path d="m 8.5 9 c -0.287 0.026 -0.504 0.178 -0.5 0.5 l 0 7 c 0.004 0.335 0.195 0.504 0.5 0.5 l 7 0 c 0.296 -0.004 0.496 -0.169 0.5 -0.5 l 0 -7 c 0.004 -0.335 -0.2 -0.496 -0.5 -0.5 z m 0.5 1 6 0 0 4 l -1.655 -1.865 -1.345 1.096 -1.475 -1.975 -1.525 1.744 z" style="fill:#fff"/>
 <path d="m 14 1 6 6 -5 0 c -0.445 0 -1 -0.555 -1 -1 z" style="fill:#fff;fill-opacity:0.392"/>
</svg>
